logo/susy.svg

<?xml version="1.0" encoding="UTF-8" standalone="no"?>
<svg width="256px" height="228px" viewBox="0 0 256 228" version="1.1" xmlns="http://www.w3.org/2000/svg" xmlns:xlink="http://www.w3.org/1999/xlink" preserveAspectRatio="xMidYMid">
    <g>
        <path d="M0,110.557792 L0,107.338868 C12.545937,96.6925986 28.0432579,81.837907 39.6048077,69.2108636 L45.5084644,73.1721888 C38.867295,85.0570531 29.2736308,97.930971 19.92573,107.587076 C34.6855383,126.155996 35.4230509,127.147272 45.0167152,142.993239 L39.6048077,146.954564 C34.1929002,141.260673 31.7332655,138.535943 24.1074868,131.60479 C15.2515574,123.185058 16.2348336,124.422541 3.44402192,113.528953 L0,110.558014 L0,110.557792 L0,110.557792 Z M50.2044135,168.110001 L60.7142467,162.856306 C80.4188784,192.735679 111.619286,213.421587 136.578945,213.421587 C160.553773,213.421587 177.63278,196.347025 177.63278,172.049994 C177.63278,148.08161 163.838471,135.932983 124.099671,125.098058 C76.8073107,112.292136 58.7436946,94.8900368 58.7436946,61.0715592 C58.7436946,27.2521928 85.0172776,0 117.202517,0 C126.070223,0 125.412706,0 146.104169,6.23852606 C149.059331,7.22357988 153.001324,7.88087498 154.642562,7.88087498 C156.941317,7.88087498 160.225792,6.89582116 163.182065,5.58211979 L174.347416,0.000888837194 L194.709565,56.8038074 L184.199731,63.6987397 C165.151506,32.1779063 140.848253,14.1185122 117.202739,14.1185122 C96.5121647,14.1185122 81.0766179,29.5507258 81.0766179,50.5652814 C81.0766179,71.2500783 95.1991299,84.7132953 124.428097,92.2646339 C138.550609,95.8768683 148.73135,98.8320297 153.657952,100.14462 C183.216011,109.009438 200.951424,132.322749 200.951424,161.544827 C200.951424,198.64778 172.379086,227.542322 136.252076,227.542322 C125.085614,227.542322 119.502605,226.22862 105.709185,219.990094 C99.7977513,217.362692 96.1850726,216.378749 93.8863174,216.378749 C90.6018417,216.378749 88.3030865,217.363803 84.3622046,219.662336 L71.8829304,227.542322 L50.2046357,168.110001 L50.2044135,168.110001 L50.2044135,168.110001 Z M211.229048,142.994128 C220.822935,126.899731 221.314684,126.157552 236.074714,107.587521 C226.726814,97.9314154 217.132927,85.0570531 210.491536,73.1721888 L216.640289,69.2108636 C227.957187,81.8381292 242.962092,96.1977385 256,107.339313 L256,110.558459 L243.453841,120.956965 C238.780335,124.919401 225.250677,137.793542 216.395415,146.954564 L211.229271,142.99435 L211.229048,142.994128 L211.229048,142.994128 Z" fill="#FF0080"></path>
    </g>
</svg>

<svg viewBox="0 0 256 228" xmlns="http://www.w3.org/2000/svg"><path fill="#FF0080" d="M0 110.55v-3.22C12.54 96.68 28.04 81.82 39.6 69.2l5.9 3.96c-6.65 11.88-16.24 24.75-25.59 34.41 14.75 18.56 15.49 19.56 25.09 35.4l-5.42 3.96c-5.42-5.7-7.88-8.42-15.5-15.35 -8.86-8.42-7.88-7.19-20.67-18.08l-3.45-2.98v-.01 0Zm50.2 57.55l10.5-5.26c19.7 29.87 50.9 50.56 75.86 50.56 23.97 0 41.05-17.08 41.05-41.38 0-23.97-13.8-36.12-53.54-46.96 -47.3-12.81-65.36-30.21-65.36-64.03s26.27-61.08 58.45-61.08c8.86 0 8.21 0 28.9 6.23 2.95.98 6.89 1.64 8.53 1.64 2.29 0 5.58-.99 8.53-2.3l11.16-5.59 20.36 56.8 -10.51 6.89c-19.05-31.53-43.36-49.59-67-49.59C96.43 14.03 81 29.46 81 50.47c0 20.68 14.12 34.14 43.35 41.69 14.12 3.61 24.3 6.56 29.22 7.87 29.55 8.86 47.29 32.17 47.29 61.4 0 37.1-28.58 65.99-64.7 65.99 -11.17 0-16.75-1.32-30.55-7.56 -5.92-2.63-9.53-3.62-11.83-3.62 -3.29 0-5.59.98-9.53 3.28l-12.48 7.87 -21.68-59.44h-.01v0Zm161.02-25.12c9.59-16.1 10.08-16.84 24.84-35.41 -9.35-9.66-18.95-22.54-25.59-34.42l6.14-3.97c11.31 12.62 26.32 26.98 39.35 38.12v3.21l-12.55 10.39c-4.68 3.96-18.21 16.83-27.06 25.99l-5.17-3.97 -.01-.01v0Z"/></svg>
